X:347
T: ES GIENG EIN KNAB SPAZIEREN
N: E0197
O: Europa, Mitteleuropa, Deutschland, Mittel - Franken, Ziegelanger
R: erzaehlendes Volks - Lied, Tod, Toten - Sage, Grabesstimme
M: 4/4
L: 1/8
K: G
GB | d2d2d2B2 | e2d2z2
Bd | dcAccBGB | B2A2z2
AB | c2c2c2BA | Bdd2z2
Bd | dcAcB2A2 | G4z2

@@@ Tune index: 3997
